RestoDelMundo/Paises Bajos/Otras Categorias/Fc Uitgeest.svg

<svg xmlns="http://www.w3.org/2000/svg" viewBox="0 0 612 792"><path fill="#00904c" d="m590.5 345.214-326.484.1c-18.528-35.897-55.974-60.441-99.154-60.441-43.206 0-80.67 24.572-99.187 60.502l-19.931.006L24.5 449.167l42.097-.015c18.82 34.976 55.764 58.754 98.265 58.754 42.528 0 79.491-23.809 98.299-58.82l305.352-.105z"/><path fill="#fff" d="M260.999 396.104c-.154-52.968-43.134-95.859-96.138-95.861-53.004.002-95.984 42.893-96.138 95.861H35.361l-.444 2.17h33.846c1.009 52.226 43.63 94.259 96.097 94.261 52.467-.002 95.087-42.035 96.098-94.261h318.299l.46-2.17zm-29.689 66.733c-17.009 17.009-40.496 27.525-66.449 27.525s-49.439-10.517-66.448-27.525c-16.593-16.595-26.979-39.361-27.477-64.562h87.874a6.339 6.339 0 0 0 12.104 0h87.872c-.498 25.2-10.882 47.967-27.476 64.562m-60.125-66.733a6.33 6.33 0 0 0-6.323-6.052 6.33 6.33 0 0 0-6.323 6.052H70.896c.077-25.84 10.572-49.218 27.517-66.165 17.009-17.006 40.495-27.524 66.448-27.524s49.439 10.518 66.449 27.524c16.947 16.947 27.44 40.325 27.517 66.165z"/><path fill="#fd0" d="M59.159 368.817h37.985l-2.126 10.735h-23.09l-2.842 12.427h22.276l-2.191 10.737h-21.96l-4.792 22.847H47.131ZM150.092 382.474c-4.79-2.772-9.344-3.424-14.146-3.424-15.205 0-21.313 10.735-21.313 21.471 0 10.085 6.433 14.811 15.541 14.811 5.447 0 10.411-1.153 14.392-3.183l-1.628 12.206c-3.656 1.208-10 2.196-15.126 2.196-18.29 0-28.789-10.81-28.789-26.439 0-18.867 13.248-32.283 34.57-32.283 10.89 0 16.982 1.879 20.08 3.015zM236.645 395.238c-3.745 18.047-8.127 31.314-28.792 31.314-12.765 0-22.766-4.559-22.766-17.881 0-4.484.657-8.148 1.219-10.753l6.429-29.12h15.368l-6.833 32.133c-.573 2.679-1.055 4.875-1.055 6.178 0 4.632 2.683 8.225 8.047 8.225 9.758 0 11.307-11.724 13.251-20.822l5.624-25.713h15.029zM252.316 368.817h15.294l-11.797 56.746h-15.289ZM283.392 380.036h-14.145l2.437-11.219h43.67l-2.447 11.219h-14.15l-9.666 45.529h-15.369ZM365.094 382.138c-4.97-2.196-9.845-3.069-16.426-3.069-15.215 0-21.314 10.716-21.314 21.453 0 10.085 6.424 14.812 14.15 14.812 1.949 0 3.902-.337 6.018-.987l2.518-11.219h-9.022l2.198-10.738h23.815l-6.734 31.631c-5.703 1.712-14.89 2.513-19.755 2.513-18.31 0-28.798-10.812-28.798-26.422 0-18.866 11.308-32.28 37.645-32.28 6.916 0 12.779 1.134 18.951 2.771zM381.182 368.817h39.935l-2.2 10.735h-24.972l-2.597 11.703h23.662l-2.356 10.736h-23.573l-2.772 12.858h25.936l-2.191 10.714h-41.06ZM430.855 368.817h39.915l-2.191 10.735h-24.958l-2.609 11.703h23.672l-2.363 10.736h-23.575l-2.775 12.858h25.939l-2.191 10.714h-41.07ZM514.51 381.655c-2.926-1.378-6.907-2.606-12.519-2.606-6.018 0-10.896.894-10.896 5.452 0 8.056 22.034 5.041 22.034 22.291 0 15.686-14.555 19.76-27.718 19.76-5.869 0-12.615-1.396-17.579-2.94l3.581-11.535c3.009 1.935 9.033 3.237 13.998 3.237 4.711 0 12.105-.893 12.105-6.736 0-9.117-22.032-5.692-22.032-21.714 0-14.642 12.848-19.034 25.29-19.034 6.99 0 13.58.726 17.397 2.531zM534.82 380.036h-14.155l2.454-11.219h43.66l-2.445 11.219h-14.155l-9.671 45.529h-15.364Z"/></svg>

<svg enable-background="new 0 0 612 792" viewBox="0 0 612 792" xmlns="http://www.w3.org/2000/svg"><path d="M 590.5 345.214 l -326.484 .1 c -18.528 -35.897 -55.974 -60.441 -99.154 -60.441 c -43.206 0 -80.67 24.572 -99.187 60.502 l -19.931 .006 L 24.5 449.167 l 42.097 -.015 c 18.82 34.976 55.764 58.754 98.265 58.754 c 42.528 0 79.491 -23.809 98.299 -58.82 l 305.352 -.105 L 590.5 345.214 z" fill="#00904c"/><path d="M 260.999 396.104 c -.154 -52.968 -43.134 -95.859 -96.138 -95.861 c -53.004 .002 -95.984 42.893 -96.138 95.861 H 35.361 l -.444 2.17 h 33.846 c 1.009 52.226 43.63 94.259 96.097 94.261 c 52.467 -.002 95.087 -42.035 96.098 -94.261 h 318.299 l .46 -2.17 H 260.999 z M 231.31 462.837 c -17.009 17.009 -40.496 27.525 -66.449 27.525 c -25.953 0 -49.439 -10.517 -66.448 -27.525 c -16.593 -16.595 -26.979 -39.361 -27.477 -64.562 h 87.874 c .802 2.58 3.208 4.453 6.052 4.453 c 2.844 0 5.25 -1.873 6.052 -4.453 h 87.872 C 258.288 423.475 247.904 446.242 231.31 462.837 z M 171.185 396.104 c -.15 -3.367 -2.919 -6.052 -6.323 -6.052 c -3.404 0 -6.173 2.685 -6.323 6.052 H 70.896 c .077 -25.84 10.572 -49.218 27.517 -66.165 c 17.009 -17.006 40.495 -27.524 66.448 -27.524 c 25.953 0 49.439 10.518 66.449 27.524 c 16.947 16.947 27.44 40.325 27.517 66.165 H 171.185 z" fill="#fff"/><path d="M 59.159 368.817 L 97.144 368.817 L 95.018 379.552 L 71.928 379.552 L 69.086 391.979 L 91.362 391.979 L 89.171 402.716 L 67.211 402.716 L 62.419 425.563 L 47.131 425.563 Z" fill="#fd0"/><path d="M 150.092 382.474 c -4.79 -2.772 -9.344 -3.424 -14.146 -3.424 c -15.205 0 -21.313 10.735 -21.313 21.471 c 0 10.085 6.433 14.811 15.541 14.811 c 5.447 0 10.411 -1.153 14.392 -3.183 l -1.628 12.206 c -3.656 1.208 -10 2.196 -15.126 2.196 c -18.29 0 -28.789 -10.81 -28.789 -26.439 c 0 -18.867 13.248 -32.283 34.57 -32.283 c 10.89 0 16.982 1.879 20.08 3.015 L 150.092 382.474 z" fill="#fd0"/><path d="M 236.645 395.238 c -3.745 18.047 -8.127 31.314 -28.792 31.314 c -12.765 0 -22.766 -4.559 -22.766 -17.881 c 0 -4.484 .657 -8.148 1.219 -10.753 l 6.429 -29.12 h 15.368 l -6.833 32.133 c -.573 2.679 -1.055 4.875 -1.055 6.178 c 0 4.632 2.683 8.225 8.047 8.225 c 9.758 0 11.307 -11.724 13.251 -20.822 l 5.624 -25.713 h 15.029 L 236.645 395.238 z" fill="#fd0"/><path d="M 252.316 368.817 L 267.61 368.817 L 255.813 425.563 L 240.524 425.563 Z" fill="#fd0"/><path d="M 283.392 380.036 L 269.247 380.036 L 271.684 368.817 L 315.354 368.817 L 312.907 380.036 L 298.757 380.036 L 289.091 425.565 L 273.722 425.565 Z" fill="#fd0"/><path d="M 365.094 382.138 c -4.97 -2.196 -9.845 -3.069 -16.426 -3.069 c -15.215 0 -21.314 10.716 -21.314 21.453 c 0 10.085 6.424 14.812 14.15 14.812 c 1.949 0 3.902 -.337 6.018 -.987 l 2.518 -11.219 h -9.022 l 2.198 -10.738 h 23.815 l -6.734 31.631 c -5.703 1.712 -14.89 2.513 -19.755 2.513 c -18.31 0 -28.798 -10.812 -28.798 -26.422 c 0 -18.866 11.308 -32.28 37.645 -32.28 c 6.916 0 12.779 1.134 18.951 2.771 L 365.094 382.138 z" fill="#fd0"/><path d="M 381.182 368.817 L 421.117 368.817 L 418.917 379.552 L 393.945 379.552 L 391.348 391.255 L 415.01 391.255 L 412.654 401.991 L 389.081 401.991 L 386.309 414.849 L 412.245 414.849 L 410.054 425.563 L 368.994 425.563 Z" fill="#fd0"/><path d="M 430.855 368.817 L 470.77 368.817 L 468.579 379.552 L 443.621 379.552 L 441.012 391.255 L 464.684 391.255 L 462.321 401.991 L 438.746 401.991 L 435.971 414.849 L 461.91 414.849 L 459.719 425.563 L 418.649 425.563 Z" fill="#fd0"/><path d="M 514.51 381.655 c -2.926 -1.378 -6.907 -2.606 -12.519 -2.606 c -6.018 0 -10.896 .894 -10.896 5.452 c 0 8.056 22.034 5.041 22.034 22.291 c 0 15.686 -14.555 19.76 -27.718 19.76 c -5.869 0 -12.615 -1.396 -17.579 -2.94 l 3.581 -11.535 c 3.009 1.935 9.033 3.237 13.998 3.237 c 4.711 0 12.105 -.893 12.105 -6.736 c 0 -9.117 -22.032 -5.692 -22.032 -21.714 c 0 -14.642 12.848 -19.034 25.29 -19.034 c 6.99 0 13.58 .726 17.397 2.531 L 514.51 381.655 z" fill="#fd0"/><path d="M 534.82 380.036 L 520.665 380.036 L 523.119 368.817 L 566.779 368.817 L 564.334 380.036 L 550.179 380.036 L 540.508 425.565 L 525.144 425.565 Z" fill="#fd0"/></svg>
